dist/img/footer/letter.svg

<svg width="25" height="19" viewBox="0 0 25 19" fill="none" xmlns="http://www.w3.org/2000/svg">
<path d="M22.6562 0.25H2.34377C1.05133 0.25 0 1.30133 0 2.59377V16.6563C0 17.9487 1.05133 19 2.34377 19H22.6562C23.9487 19 25 17.9487 25 16.6563V2.59377C25 1.30133 23.9487 0.25 22.6562 0.25ZM22.6562 1.81249C22.7624 1.81249 22.8634 1.83452 22.9557 1.87298L12.5 10.935L2.04427 1.87298C2.13659 1.83457 2.23757 1.81249 2.34371 1.81249H22.6562ZM22.6562 17.4375H2.34377C1.91271 17.4375 1.56249 17.0873 1.56249 16.6562V3.52377L11.9881 12.5593C12.1353 12.6866 12.3177 12.75 12.5 12.75C12.6823 12.75 12.8647 12.6867 13.0119 12.5593L23.4375 3.52377V16.6563C23.4375 17.0873 23.0873 17.4375 22.6562 17.4375Z" fill="white"/>
</svg>

<svg width="25" height="19" fill="none" xmlns="http://www.w3.org/2000/svg"><path d="M22.656.25H2.344A2.346 2.346 0 000 2.594v14.062A2.346 2.346 0 002.344 19h20.312A2.346 2.346 0 0025 16.656V2.594A2.346 2.346 0 0022.656.25zm0 1.562c.106 0 .207.023.3.061L12.5 10.935 2.044 1.873a.778.778 0 01.3-.06h20.312zm0 15.625H2.344a.782.782 0 01-.782-.78V3.523l10.426 9.035a.78.78 0 001.024 0l10.425-9.035v13.132c0 .431-.35.782-.78.782z" fill="#fff"/></svg>
